X:1
T:MY WAY WITH LONELINESS
T:MY WAY WITH LONELINESS
T:Claudio Raffi
T:2006
T:2006
T:2006
C:Claudio Raffi
Z:2006
%%score ( 1 2 ) { ( 3 5 6 ) | ( 4 7 ) }
L:1/8
Q:1/4=64
M:4/4
K:Ab
V:1 treble nm="Soprano" snm="S"
V:2 treble 
V:3 treble nm="Pianoforte" snm="Pf."
V:5 treble 
V:6 treble 
V:4 bass 
V:7 bass 
V:1
 z8 | z8 |:!p! (c6 d2 | E4) z4 | (A6 D2 | E4 C2) z2 | (F2 GA!<(! B2 cB | E4-!<)! EBAd) | %8
w: ||My _|way|My _|_ way|My _ _ _ _ _|_ _ _ _ _|
 c4 B2 z (B |1!>(! c4)!>)! !fermata!z4 :|2 (A4!>)!!>(! _G2) z2 ||[K:B]!mf! x8 |"^cresc." x8 | x8 | %14
w: way _ My|way|way _||||
 x8 | x8 |!>(! x8!>)! | z8 |:[K:Ab]!p! (c6"^a tempo" d2 | E4) z4 | (A6 D2 | E2 D2 C4) | %22
w: ||||My *|way|My _|_ _ way|
!>(! (F2 GA Bcd!<(!e!>)! | E4-!<)! EBAd | e4 B2) z!>(! (B | A4!>)! _G2) z2 ||[K:B]!mf! x8 | x8 | %28
w: My * * * * * *||* way My|way _|||
 x8 | x8 |"^rit." x8 | x8 | x8 |] %33
w: |||||
V:2
 x8 | x8 |: x8 | x8 | x8 | x8 | x8 | x8 | x8 |1 x8 :|2 x8 ||[K:B] (F6 AB | F6 AB | %13
w: |||||||||||with _ _|_ _ _|
 G2 F2) z!<(! (fAB | f2!<)! =g2 !fermata!a2 c2 | f8- | f4) z4 | x8 |:[K:Ab] x8 | x8 | x8 | x8 | %22
w: * * lone- * *|li- * * *|ness|||||||
 x8 | x8 | x8 | x8 ||[K:B] (F6 AB | F6 AB | G2 F2) z"^cresc." (fAB | %29
w: ||||with _ _|_ _ _|* * lone- * *|
 f2 =g2 !breath!!fermata!a2) (c2 | f2 =g2 a4 | b8- | !fermata!b8) |] %33
w: li- * ness lone-|li- * *|ness||
V:3
"^con Ped." z (eGA) z4 | z (eGA) z4 |: z (eGA) z4 | z (eGA) z4 | z (eGA B2 c2) | z (eGA c2 B2) | %6
 z (eGA B4) | z (eGA B4) | z (eGA B4) |1 c4 !fermata!d4 :|2 c8 ||[K:B] z (fAB) z (fAB) | %12
"^cresc." z (fAB) z (fAB) | z (fAB) z!<(! (fAB) | z (=d c2) !fermata![Aa]2 c2!<)! | [FBf]6 (F2 | %16
 B2 A2!>(! G2 =F2 |"^rit." [CE]2 [CE]2 [C_E]2!>)! [CE]2) |:[K:Ab] z (eGA) z4 | z (eGA) z4 | %20
 z (eGA B2 c2) | z (eGA c2) B2 | z (eGA B4) | z (eGA B4) | z (eGA [FB]4) | c8 || %26
[K:B] z (fAB) z (fAB) | z (fAB) z (fAB) | z (fAB) z (fAB) | z (=d c2) !fermata![Aa]2 !breath!c2 | %30
"^rit." z ([=df] [c=g]2) [Aa](d c2) | [Bb]6!>(! [Ff]2 | B8!>)! |] %33
V:4
!p! [A,C-]4 [E,C]2 [A,B,]2 | [A,C-]4 [E,C]2 [A,B,]2 |: [A,C-]4 [E,C]2 [A,B,]2 | %3
 [A,C-]4 [E,C]2 [A,B,]2 | [F,D]6 F,,2 | [F,D]6 F,,2 | [A,C]4!<(! [A,B,]4 | [A,C]4!<)! [A,B,]4 | %8
 [A,C]4 [A,B,]4 |1!>(! !fermata![A,,,A,,]8!>)! :|2 [A,,,A,,]8 ||[K:B]!mf! [B,,,B,,]4 [A,=D]4 | %12
 [B,D]4 [A,=D]4 | [=A,C]4 [G,=C]4 | [=G,B,F]4 !fermata![F,A,^E]4 | B,,,8 | B,,,8 | %17
 [=A,,,=A,,]4 =A,2 A,2 |:[K:Ab]!p! [A,C-]4"^a tempo" [E,C]2 [A,B,]2 | [A,C-]4 [E,C]2 [A,B,]2 | %20
 [F,D]6 F,,2 | [F,D]6 F,,2 | [A,C]4 [A,B,]4 | [A,C]4 [A,B,]4 | [A,C]4 [A,B,]4 |!>(! A,,8!>)! || %26
[K:B]!mf! [B,,,B,,]4 [A,=D]4 | [B,D]4 [A,=D]4 | [=A,C]4"^cresc." [G,=C]4 | %29
 [=G,B,F]4 !fermata![F,A,^E]4 | [=G,B,F]4 [F,A,^E]4 | B,,,8 | B,,,8 |] %33
V:5
 x8 | x8 |: x8 | x8 | z4 F4 | x8 | F4- F2 E2 | E4- E2 E2 | F4- F2 E2 |1 x8 :|2 x8 ||[K:B] x8 | x8 | %13
 x8 | x8 | x8 | x8 | x8 |:[K:Ab] x8 | x8 | z4 F4 | x8 | F4- F2 E2 | E4- E2 E2 | x4 z EDE | x8 || %26
[K:B] x8 | x8 | x8 | x8 | x8 | x8 | D4 !fermata!^E4 |] %33
V:6
 x8 | x8 |: x8 | x8 | x8 | x8 | x8 | x8 | x8 |1 z (EFE G4) :|2 z (EFE _G2 G2) ||[K:B] x8 | x8 | %13
 x8 | x8 | x8 | x8 | x8 |:[K:Ab] x8 | x8 | x8 | x8 | x8 | x8 | x8 | z (EFE _G2 G2) ||[K:B] x8 | %27
 x8 | x8 | x8 | x8 | x8 | x8 |] %33
V:7
 x8 | x8 |: x8 | x8 | x8 | x8 | x8 | x8 | x8 |1 z2 ([A,C]2 !fermata!B,4) :|2 %10
 z2!>(! ([A,C]2 [_G,B,]2!>)! [A,C]2) ||[K:B] x8 | x8 | x8 | x8 | z B,,F,A, [CD]4 | %16
 z B,,F,A, [CD]2 [A,C]2 | x8 |:[K:Ab] x8 | x8 | x8 | x8 | x8 | x8 | x8 | %25
 z2 ([A,C]2 [_G,B,]2 [A,C]2) ||[K:B] x8 | x8 | x8 | x8 | x8 | z (B,,F,A, [CD]4) | %32
 !fermata!z (B,,F,A, !fermata![CD]4) |] %33

